src/icons/icons_set_01/002-twitter.svg

<svg height="50" viewBox="0 0 50 50" width="50" xmlns="http://www.w3.org/2000/svg"><path d="m41.9136713 4.05383121c-1.5660193.69465288-3.2274902 1.15015928-4.9288165 1.35127707 1.791392-1.07146973 3.1322626-2.75754334 3.7728726-4.74418662-1.6866541.9985065-3.5306242 1.70334102-5.4532726 2.08444522-2.6599129-2.82679337-6.8850794-3.51844567-10.3074859-1.68731728-3.4224065 1.83112837-5.191482 5.72994691-4.3157402 9.5113453-6.9013937-.345282-13.33197907-3.60336745-17.69236437-8.96391719-2.27519383 3.9213691-1.11208663 8.93573149 2.65706561 11.45508339-1.36242757-.0439995-2.6949434-.4108312-3.88793185-1.0703184v.1070318c.0052931 4.0825136 2.88349667 7.5972107 6.88482357 8.4073516-.73695644.2005246-1.49729722.3022034-2.26104777.302365-.53897097-.0012703-1.0765826-.0541354-1.60547771-.157872 1.12484509 3.4999164 4.35173442 5.8964196 8.02738852 5.9616739-3.04106078 2.3848638-6.79571398 3.6778818-10.66037196 3.6711924-.68398324-.0012595-1.36736691-.0405654-2.04698408-.1177351 3.92373743 2.523732 8.49160153 3.8633416 13.15688984 3.8584981 15.7871974 0 24.4193159-13.0766159 24.4193159-24.41931592l-.026758-1.11313121c1.6777368-1.21026405 3.1234987-2.71313118 4.2678949-4.43647006z" transform="translate(3.995 7.874904)"/></svg>

<?xml version="1.0" encoding="UTF-8"?>
<svg width="50px" height="50px" viewBox="0 0 50 50" version="1.1" xmlns="http://www.w3.org/2000/svg" xmlns:xlink="http://www.w3.org/1999/xlink">
    <!-- Generator: Sketch 52.2 (67145) - http://www.bohemiancoding.com/sketch -->
    <title>002-twitter</title>
    <desc>Created with Sketch.</desc>
    <g id="002-twitter" stroke="none" stroke-width="1" fill="none" fill-rule="evenodd">
        <g id="Group" transform="translate(3.995000, 7.874904)" fill="#000000" fill-rule="nonzero">
            <g id="102-twitter">
                <g id="ICONSET-01">
                    <g id="102-twitter">
                        <path d="M41.9136713,4.05383121 C40.347652,4.74848409 38.6861811,5.20399049 36.9848548,5.40510828 C38.7762468,4.33363855 40.1171174,2.64756494 40.7577274,0.660921656 C39.0710733,1.65942816 37.2271032,2.36426268 35.3044548,2.74536688 C32.6445419,-0.0814264894 28.4193754,-0.773078793 24.9969689,1.0580496 C21.5745624,2.88917797 19.8054869,6.78799651 20.6812287,10.5693949 C13.779835,10.2241129 7.34924963,6.96602745 2.98886433,1.60547771 C0.713670501,5.52684681 1.8767777,10.5412092 5.64592994,13.0605611 C4.28350237,13.0165616 2.95098654,12.6497299 1.75799809,11.9902427 L1.75799809,12.0972745 C1.76329119,16.1797881 4.64149476,19.6944852 8.64282166,20.5046261 C7.90586522,20.7051507 7.14552444,20.8068295 6.38177389,20.8069911 C5.84280292,20.8057208 5.30519129,20.7528557 4.77629618,20.6491191 C5.90114127,24.1490355 9.1280306,26.5455387 12.8036847,26.610793 C9.76262392,28.9956568 6.00797072,30.2886748 2.14331274,30.2819854 C1.4593295,30.2807259 0.775945833,30.24142 0.0963286624,30.1642503 C4.02006609,32.6879823 8.58793019,34.0275919 13.2532185,34.0227484 C29.0404159,34.0227484 37.6725344,20.9461325 37.6725344,9.60343248 L37.6457764,8.49030127 C39.3235132,7.28003722 40.7692751,5.77717009 41.9136713,4.05383121 Z" id="Shape"></path>
                    </g>
                </g>
            </g>
        </g>
    </g>
</svg>
